svg/Octicons/organization.svg

<svg xmlns="http://www.w3.org/2000/svg" viewBox="0 0 896 1024"><path d="m768 384h-64-128-64-64-64-64-128-64c-70.66 0-128 57.34-128 128v64c0 47.25 25.844 88.06 64 110.25v209.75h256v128h256v-128h256v-209.75c38.12-22.19 64-62.938 64-110.25v-64c0-70.66-57.37-128-128-128m-512 448h-128v-256h-64v-64c0-35.31 28.688-64 64-64h81.72c-11 18.875-17.719 40.562-17.719 64v128c0 47.25 25.844 88.06 64 110.25v81.75m320-128v-128h-64v384h-128v-384h-64v128c-35.31 0-64-28.625-64-64v-128c0-35.31 28.688-64 64-64h256c35.37 0 64 28.688 64 64v128c0 35.37-28.625 64-64 64m256-128h-64v256h-128v-81.75c38.12-22.19 64-62.938 64-110.25v-128c0-23.438-6.75-45.12-17.75-64h81.75c35.37 0 64 28.688 64 64v64m-528.31-258.62c35.19 40.5 86.47 66.62 144.31 66.62 57.875 0 109.12-26.12 144.31-66.62 21.813 39.563 63.38 66.62 111.69 66.62 70.62 0 128-57.34 128-128s-57.37-128-128-128c-25.625 0-49.37 7.688-69.37 20.688-19.75-85.13-95.56-148.69-186.62-148.69s-166.91 63.56-186.62 148.69c-20.03-13-43.781-20.688-69.37-20.688-70.66 0-128 57.34-128 128s57.34 128 128 128c48.31 0 89.84-27.06 111.69-66.62m400.31-125.37c35.37 0 64 28.594 64 64s-28.625 64-64 64c-35.31 0-64-28.594-64-64s28.688-64 64-64m-256-128c70.62 0 128 57.34 128 128s-57.37 128-128 128c-70.66 0-128-57.34-128-128s57.34-128 128-128m-256 256c-35.31 0-64-28.594-64-64s28.688-64 64-64c35.406 0 64 28.594 64 64s-28.594 64-64 64"/></svg>

<svg height="1024" width="896" xmlns="http://www.w3.org/2000/svg">
  <path d="M768 384h-64H576h-64-64-64-64H192h-64C57.344 384 0 441.344 0 512v64c0 47.25 25.844 88.062 64 110.25V896h256v128h256V896h256V686.25c38.125-22.188 64-62.938 64-110.25v-64C896 441.344 838.625 384 768 384zM256 832H128V576H64v-64c0-35.312 28.688-64 64-64h81.719c-11 18.875-17.719 40.562-17.719 64v128c0 47.25 25.844 88.062 64 110.25V832zM576 704V576h-64v384H384V576h-64v128c-35.312 0-64-28.625-64-64V512c0-35.312 28.688-64 64-64h256c35.375 0 64 28.688 64 64v128C640 675.375 611.375 704 576 704zM832 576h-64v256H640v-81.75c38.125-22.188 64-62.938 64-110.25V512c0-23.438-6.75-45.125-17.75-64H768c35.375 0 64 28.688 64 64V576zM303.688 317.375C338.875 357.875 390.156 384 448 384c57.875 0 109.125-26.125 144.312-66.625C614.125 356.938 655.688 384 704 384c70.625 0 128-57.344 128-128s-57.375-128-128-128c-25.625 0-49.375 7.688-69.375 20.688C614.875 63.56200000000001 539.062 0 448 0S281.094 63.56200000000001 261.375 148.688C241.344 135.688 217.594 128 192 128c-70.656 0-128 57.344-128 128s57.344 128 128 128C240.312 384 281.844 356.938 303.688 317.375zM704 192c35.375 0 64 28.594 64 64s-28.625 64-64 64c-35.312 0-64-28.594-64-64S668.688 192 704 192zM448 64c70.625 0 128 57.344 128 128s-57.375 128-128 128c-70.656 0-128-57.344-128-128S377.344 64 448 64zM192 320c-35.312 0-64-28.594-64-64s28.688-64 64-64c35.406 0 64 28.594 64 64S227.406 320 192 320z" />
</svg>
